X:1
T:Scattering Sunshine
T:Scattering Sunshine
T:Charles Edwin Neal
T:Charles Edwin Neal, 1897
T:Public Domain Courtesy of the Cyber Hymnal™
T:Public Domain Courtesy of the Cyber Hymnal™
C:Charles Edwin Neal
Z:Public Domain
Z:Courtesy of the Cyber Hymnal™
%%score ( 1 2 ) ( 3 4 )
L:1/8
Q:1/4=88
M:6/8
K:D
V:1 treble 
V:2 treble 
V:3 bass 
V:4 bass 
V:1
 D | [DF]>[DE]D D[DE][DF] | [DG]>[DA][GB] [FA]2 D | [DF]>[DF][DF] [DF][EG][FA] | %4
w: 1.~We’re|scat- ter- ing sun- shine, wher-|ev- er we go, ’Tis|Je- sus who gives us the|
w: 2.~We’re|scat- ter- ing smiles all a-|long on our way, To|light- en some bur- den, we|
w: 3.~We’re|scat- ter- ing kind words of|cheer as we go, To|com- fort the wea- ry, who|
 [GB][FA]>[DF] !fermata![CE]2 [GA] | [Fd]>[Ac][GB] [FA][EG]D | [=CD][CE][CF] [B,G]3 | %7
w: sun- shine, we know; He|bids us while tra- veling this|dark world be- low;|
w: scat- ter each ray, To|bright- en some lives that are|cheer- less to- day,|
w: jour- ney be- low; And|Je- sus has prom- ised to|help us, we know,|
 [DG]>[DA][GB] [FA][CE]>[CF] | D3 ||[M:9/8]"^Refrain" [DF]>[DF][DF] | [DF]3 [FA]3 [FA]>[EG][DF] | %11
w: Scat- ter the sun- shine of|Love.|||
w: Scat- ter the sun- shine of|Love.|Scat- ter- ing|sun- shine sent from a-|
w: Scat- ter the sun- shine of|Love.|||
 [CG]6 [CG]>[CG][CG] | [CG]3 [Gc]3 [GB][Ac][GB] | [FA]3- [FA]2 [FA] [Fd]>[Fc][GB] | %14
w: |||
w: bove, Scat- ter- ing|sun- shine, sun- shine of|Love; * We’re scat- ter- ing|
w: |||
 [FA]3 [DF]2 D [=CD][CE][CF] | [B,G]6 [DG]>[DA][GB] | [FA]6 [CE]2 [CF] | D6 |] %18
w: ||||
w: sun- shine, wher- ev- er we|go, Scat- ter- ing|sun- shine of|Love.|
w: ||||
V:2
 D | x2 D D x2 | x5 D | x6 | x6 | x5 D | x6 | x6 | D3 ||[M:9/8] x3 | x9 | x9 | x9 | x9 | x5 D x3 | %15
 x9 | x9 | D6 |] %18
V:3
 [D,F,] | [D,A,]>[D,G,][D,F,] [D,F,][D,G,][D,A,] | [G,B,]>[G,C][G,D] [D,D]2 [D,F,] | %3
 [D,A,]>[D,A,][D,A,] [D,A,][D,A,][D,D] | [D,D][D,D]>[D,A,] !fermata![A,,A,]2 A, | %5
 [D,A,]>[D,B,][D,B,] [D,D][D,A,][D,F,] | [D,F,][D,G,][D,A,] [G,,G,]3 | %7
 [G,,B,]>[G,,B,][G,,D] [A,,D][A,,A,]>[A,,A,] | [D,F,]3 ||[M:9/8] [D,A,]>[D,A,][D,A,] | %10
 [D,A,]3 [D,A,]3 [D,A,]>[D,A,][D,A,] | [A,,A,]6 [A,,A,]>[A,,A,][A,,A,] | %12
 [A,,A,]3 [A,,A,]3 [A,,A,][A,,A,][A,,C] | [D,D]3- [D,D]2 [D,D] [D,A,]>[D,A,][D,B,] | %14
 [D,D]3 [D,A,]2 [D,F,] [D,F,][D,G,][D,A,] | [G,,G,]6 [G,,B,]>[G,,C][G,,D] | %16
 [A,,D]6 [A,,G,]2 [A,,A,] | [D,F,]6 |] %18
V:4
 x | x6 | x6 | x6 | x5 A, | x6 | x6 | x6 | x3 ||[M:9/8] x3 | x9 | x9 | x9 | x9 | x9 | x9 | x9 | %17
 x6 |] %18

